X:349
T:B349-  The Old Wife She Sent to the Miller Her Daughter
Q:1/4=120
L:1/4
M:6/4
K:A mixolydian
F|FBA(B/A/) (G/F/) (E/D/)|(C/D/)EEDC|DEFFDD|\
F/G/AAA2F|FBA(B/A/) (G/F/) (E/D/)|C/D/EEEDC2|D/E/FF(FE)D|\
(F/G/)AAA2F|CddCdd|Cdcc2A|B3/2c/BBAG|\
FGAB2A|F/G/AABBA|Bcde2A|d3/2e/ (d/c/)B2A|\
FGAF3|(Bd2)DEF|FEDF/G/AA|(A3A2)|]

